Numix-Circle/48x48/apps/goa-panel.svg

<?xml version="1.0" encoding="UTF-8" standalone="no"?>
<svg
   xmlns:dc="http://purl.org/dc/elements/1.1/"
   xmlns:cc="http://creativecommons.org/ns#"
   xmlns:rdf="http://www.w3.org/1999/02/22-rdf-syntax-ns#"
   xmlns:svg="http://www.w3.org/2000/svg"
   xmlns="http://www.w3.org/2000/svg"
   xmlns:xlink="http://www.w3.org/1999/xlink"
   xmlns:sodipodi="http://sodipodi.sourceforge.net/DTD/sodipodi-0.dtd"
   xmlns:inkscape="http://www.inkscape.org/namespaces/inkscape"
   viewBox="0 0 48 48"
   id="svg2"
   version="1.1"
   inkscape:version="0.48.4 r9939"
   width="100%"
   height="100%"
   sodipodi:docname="goa-panel.svg">
  <metadata
     id="metadata61">
    <rdf:RDF>
      <cc:Work
         rdf:about="">
        <dc:format>image/svg+xml</dc:format>
        <dc:type
           rdf:resource="http://purl.org/dc/dcmitype/StillImage" />
      </cc:Work>
    </rdf:RDF>
  </metadata>
  <sodipodi:namedview
     pagecolor="#ffffff"
     bordercolor="#666666"
     borderopacity="1"
     objecttolerance="10"
     gridtolerance="10"
     guidetolerance="10"
     inkscape:pageopacity="0"
     inkscape:pageshadow="2"
     inkscape:window-width="640"
     inkscape:window-height="480"
     id="namedview59"
     showgrid="false"
     inkscape:zoom="6.9532167"
     inkscape:cx="27.295753"
     inkscape:cy="17.579383"
     inkscape:window-x="0"
     inkscape:window-y="0"
     inkscape:window-maximized="0"
     inkscape:current-layer="svg2" />
  <defs
     id="defs4">
    <linearGradient
       id="linearGradient3764"
       x1="1"
       x2="47"
       gradientUnits="userSpaceOnUse"
       gradientTransform="matrix(0,-1,1,0,-1.5e-6,47.999998)">
      <stop
         stop-color="#26a8de"
         stop-opacity="1"
         id="stop7" />
      <stop
         offset="1"
         stop-color="#38aee1"
         stop-opacity="1"
         id="stop9" />
    </linearGradient>
    <clipPath
       id="clipPath-407413709">
      <g
         transform="translate(0,-1004.3622)"
         id="g12">
        <path
           d="m -24 13 c 0 1.105 -0.672 2 -1.5 2 -0.828 0 -1.5 -0.895 -1.5 -2 0 -1.105 0.672 -2 1.5 -2 0.828 0 1.5 0.895 1.5 2 z"
           transform="matrix(15.333333,0,0,11.5,414.99999,878.8622)"
           fill="#1890d0"
           id="path14" />
      </g>
    </clipPath>
    <clipPath
       id="clipPath-420741456">
      <g
         transform="translate(0,-1004.3622)"
         id="g17">
        <path
           d="m -24 13 c 0 1.105 -0.672 2 -1.5 2 -0.828 0 -1.5 -0.895 -1.5 -2 0 -1.105 0.672 -2 1.5 -2 0.828 0 1.5 0.895 1.5 2 z"
           transform="matrix(15.333333,0,0,11.5,414.99999,878.8622)"
           fill="#1890d0"
           id="path19" />
      </g>
    </clipPath>
    <linearGradient
       inkscape:collect="always"
       xlink:href="#linearGradient3764"
       id="linearGradient3050"
       gradientUnits="userSpaceOnUse"
       gradientTransform="matrix(0,-1,1,0,-1.5e-6,47.999998)"
       x1="1"
       x2="47" />
    <linearGradient
       inkscape:collect="always"
       xlink:href="#linearGradient3764"
       id="linearGradient3053"
       gradientUnits="userSpaceOnUse"
       gradientTransform="matrix(0,-1,1,0,-1.5e-6,47.999998)"
       x1="1"
       x2="47" />
    <linearGradient
       inkscape:collect="always"
       xlink:href="#linearGradient3764"
       id="linearGradient3077"
       gradientUnits="userSpaceOnUse"
       gradientTransform="matrix(0,-1,1,0,-1.5e-6,47.999998)"
       x1="1"
       x2="47" />
    <linearGradient
       inkscape:collect="always"
       xlink:href="#linearGradient3764"
       id="linearGradient3089"
       gradientUnits="userSpaceOnUse"
       gradientTransform="matrix(0,-1,1,0,-1.5e-6,47.999998)"
       x1="1"
       x2="47" />
    <linearGradient
       inkscape:collect="always"
       xlink:href="#linearGradient3764"
       id="linearGradient3092"
       gradientUnits="userSpaceOnUse"
       gradientTransform="matrix(0,-1,1,0,-1.5e-6,47.999998)"
       x1="1"
       x2="47" />
  </defs>
  <g
     id="g21">
    <path
       d="m 36.31 5 c 5.859 4.062 9.688 10.831 9.688 18.5 c 0 12.426 -10.07 22.5 -22.5 22.5 c -7.669 0 -14.438 -3.828 -18.5 -9.688 c 1.037 1.822 2.306 3.499 3.781 4.969 c 4.085 3.712 9.514 5.969 15.469 5.969 c 12.703 0 23 -10.298 23 -23 c 0 -5.954 -2.256 -11.384 -5.969 -15.469 c -1.469 -1.475 -3.147 -2.744 -4.969 -3.781 z m 4.969 3.781 c 3.854 4.113 6.219 9.637 6.219 15.719 c 0 12.703 -10.297 23 -23 23 c -6.081 0 -11.606 -2.364 -15.719 -6.219 c 4.16 4.144 9.883 6.719 16.219 6.719 c 12.703 0 23 -10.298 23 -23 c 0 -6.335 -2.575 -12.06 -6.719 -16.219 z"
       opacity="0.05"
       id="path23" />
    <path
       d="m 41.28 8.781 c 3.712 4.085 5.969 9.514 5.969 15.469 c 0 12.703 -10.297 23 -23 23 c -5.954 0 -11.384 -2.256 -15.469 -5.969 c 4.113 3.854 9.637 6.219 15.719 6.219 c 12.703 0 23 -10.298 23 -23 c 0 -6.081 -2.364 -11.606 -6.219 -15.719 z"
       opacity="0.1"
       id="path25" />
    <path
       d="m 31.25 2.375 c 8.615 3.154 14.75 11.417 14.75 21.13 c 0 12.426 -10.07 22.5 -22.5 22.5 c -9.708 0 -17.971 -6.135 -21.12 -14.75 a 23 23 0 0 0 44.875 -7 a 23 23 0 0 0 -16 -21.875 z"
       opacity="0.2"
       id="path27" />
  </g>
  <path
     style="fill:url(#linearGradient3092);fill-opacity:1"
     d="M 24 1 C 11.297 1 1 11.297 1 24 C 1 26.778781 1.5033942 29.44033 2.40625 31.90625 L 5.4375 30.90625 C 5.7455 26.14025 10.77775 24.23075 12.71875 24.59375 C 13.57675 13.68675 23.13275 14.832 25.84375 16.125 C 27.76575 14.832 29.742 14.15625 31.625 14.03125 C 38.352 13.58225 43.941 20.03875 42.125 29.46875 C 42.401875 29.530278 44.192311 30.176633 45.96875 30.8125 C 46.635065 28.660191 47 26.371327 47 24 C 47 11.297 36.703 1 24 1 z M 45.96875 30.84375 C 45.789502 31.420111 45.566084 31.975327 45.34375 32.53125 C 45.567258 31.973056 45.788733 31.42255 45.96875 30.84375 z M 43.65625 35.9375 C 43.374673 36.400297 43.062562 36.871928 42.75 37.3125 C 43.070647 36.861598 43.368121 36.411708 43.65625 35.9375 z M 4.75 36.5625 C 5.070456 37.053379 5.3940133 37.504826 5.75 37.96875 C 5.399942 37.511785 5.0656664 37.04559 4.75 36.5625 z M 5.75 37.96875 C 6.1001307 38.425042 6.4610949 38.884131 6.84375 39.3125 C 6.4611271 38.883499 6.100058 38.425715 5.75 37.96875 z M 41.65625 38.71875 C 41.353322 39.08215 41.043157 39.437351 40.71875 39.78125 C 41.042275 39.43866 41.354054 39.080709 41.65625 38.71875 z M 40.03125 40.46875 C 39.745586 40.74709 39.456036 41.017962 39.15625 41.28125 C 39.455191 41.018805 39.746341 40.74615 40.03125 40.46875 z M 8.28125 40.78125 C 8.6142733 41.093344 8.9613504 41.395459 9.3125 41.6875 C 8.9563946 41.391555 8.6187276 41.097825 8.28125 40.78125 z M 31.375 45.78125 C 30.836494 45.963683 30.305608 46.138467 29.75 46.28125 C 30.301178 46.139446 30.840626 45.962074 31.375 45.78125 z M 27.78125 46.6875 C 27.164618 46.789764 26.538464 46.854082 25.90625 46.90625 C 26.539614 46.854133 27.163477 46.789894 27.78125 46.6875 z M 25.90625 46.90625 C 25.274036 46.958418 24.64573 47 24 47 C 24.64385 47 25.275789 46.958128 25.90625 46.90625 z "
     id="path31" />
  <g
     id="g33" />
  <path
     style="opacity:0.1;fill:#000000;fill-opacity:0.9020004;fill-rule:nonzero;stroke:none"
     d="m 39.53125,17.375 c 2.374844,2.737637 3.579335,6.975872 2.59375,12.09375 0.07862,0.01747 0.806025,0.276849 1.09375,0.375 0.876283,-5.493034 -0.782977,-9.928287 -3.6875,-12.46875 z"
     id="path45"
     inkscape:connector-curvature="0"
     sodipodi:nodetypes="cccc" />
  <path
     style="fill:#f9f9f9;fill-opacity:0.90200034;fill-rule:nonzero;stroke:none"
     d="M 31.625 14.03125 C 29.742 14.15625 27.76575 14.832 25.84375 16.125 C 23.13275 14.832 13.57675 13.68675 12.71875 24.59375 C 10.77775 24.23075 5.7455 26.14025 5.4375 30.90625 L 2.40625 31.90625 C 5.630735 40.713108 14.075781 47 24 47 C 34.331673 47 43.06567 40.189932 45.96875 30.8125 C 44.192311 30.176633 42.401875 29.530278 42.125 29.46875 C 43.941 20.03875 38.352 13.58225 31.625 14.03125 z "
     id="path53" />
  <g
     id="g55">
    <path
       d="m 40.03 7.531 c 3.712 4.084 5.969 9.514 5.969 15.469 0 12.703 -10.297 23 -23 23 c -5.954 0 -11.384 -2.256 -15.469 -5.969 4.178 4.291 10.01 6.969 16.469 6.969 c 12.703 0 23 -10.298 23 -23 0 -6.462 -2.677 -12.291 -6.969 -16.469 z"
       opacity="0.1"
       id="path57" />
  </g>
  <g
     id="use3071" />
</svg>

<svg xmlns="http://www.w3.org/2000/svg" viewBox="0 0 48 48"><defs><clipPath><g transform="translate(0,-1004.3622)"><path d="m -24 13 c 0 1.105 -0.672 2 -1.5 2 -0.828 0 -1.5 -0.895 -1.5 -2 0 -1.105 0.672 -2 1.5 -2 0.828 0 1.5 0.895 1.5 2 z" transform="matrix(15.333333,0,0,11.5,414.99999,878.8622)" fill="#1890d0"/></g></clipPath><clipPath><g transform="translate(0,-1004.3622)"><path d="m -24 13 c 0 1.105 -0.672 2 -1.5 2 -0.828 0 -1.5 -0.895 -1.5 -2 0 -1.105 0.672 -2 1.5 -2 0.828 0 1.5 0.895 1.5 2 z" transform="matrix(15.333333,0,0,11.5,414.99999,878.8622)" fill="#1890d0"/></g></clipPath><linearGradient id="linearGradient3092" gradientUnits="userSpaceOnUse" gradientTransform="matrix(0,-1,1,0,-1.5e-6,47.999998)" x1="1" x2="47"><stop stop-color="#26a8de" stop-opacity="1"/><stop offset="1" stop-color="#38aee1" stop-opacity="1"/></linearGradient></defs><g><path d="m 36.31 5 c 5.859 4.062 9.688 10.831 9.688 18.5 c 0 12.426 -10.07 22.5 -22.5 22.5 c -7.669 0 -14.438 -3.828 -18.5 -9.688 c 1.037 1.822 2.306 3.499 3.781 4.969 c 4.085 3.712 9.514 5.969 15.469 5.969 c 12.703 0 23 -10.298 23 -23 c 0 -5.954 -2.256 -11.384 -5.969 -15.469 c -1.469 -1.475 -3.147 -2.744 -4.969 -3.781 z m 4.969 3.781 c 3.854 4.113 6.219 9.637 6.219 15.719 c 0 12.703 -10.297 23 -23 23 c -6.081 0 -11.606 -2.364 -15.719 -6.219 c 4.16 4.144 9.883 6.719 16.219 6.719 c 12.703 0 23 -10.298 23 -23 c 0 -6.335 -2.575 -12.06 -6.719 -16.219 z" opacity="0.05"/><path d="m 41.28 8.781 c 3.712 4.085 5.969 9.514 5.969 15.469 c 0 12.703 -10.297 23 -23 23 c -5.954 0 -11.384 -2.256 -15.469 -5.969 c 4.113 3.854 9.637 6.219 15.719 6.219 c 12.703 0 23 -10.298 23 -23 c 0 -6.081 -2.364 -11.606 -6.219 -15.719 z" opacity="0.1"/><path d="m 31.25 2.375 c 8.615 3.154 14.75 11.417 14.75 21.13 c 0 12.426 -10.07 22.5 -22.5 22.5 c -9.708 0 -17.971 -6.135 -21.12 -14.75 a 23 23 0 0 0 44.875 -7 a 23 23 0 0 0 -16 -21.875 z" opacity="0.2"/></g><path d="m 24 1 c -12.703 0 -23 10.297 -23 23 c 0 2.779 0.503 5.44 1.406 7.906 l 3.03 -1 c 0.308 -4.766 5.34 -6.676 7.281 -6.313 c 0.858 -10.907 10.414 -9.762 13.13 -8.469 c 1.922 -1.293 3.898 -1.969 5.781 -2.094 c 6.727 -0.449 12.316 6.01 10.5 15.438 c 0.277 0.062 2.067 0.708 3.844 1.344 c 0.666 -2.152 1.031 -4.441 1.031 -6.813 c 0 -12.703 -10.297 -23 -23 -23 z m 21.969 29.844 c -0.179 0.576 -0.403 1.132 -0.625 1.688 c 0.224 -0.558 0.445 -1.109 0.625 -1.688 z m -2.313 5.094 c -0.282 0.463 -0.594 0.934 -0.906 1.375 c 0.321 -0.451 0.618 -0.901 0.906 -1.375 z m -38.906 0.625 c 0.32 0.491 0.644 0.942 1 1.406 c -0.35 -0.457 -0.684 -0.923 -1 -1.406 z m 1 1.406 c 0.35 0.456 0.711 0.915 1.094 1.344 c -0.383 -0.429 -0.744 -0.887 -1.094 -1.344 z m 35.906 0.75 c -0.303 0.363 -0.613 0.719 -0.938 1.063 c 0.324 -0.343 0.635 -0.701 0.938 -1.063 z m -1.625 1.75 c -0.286 0.278 -0.575 0.549 -0.875 0.813 c 0.299 -0.262 0.59 -0.535 0.875 -0.813 z m -31.75 0.313 c 0.333 0.312 0.68 0.614 1.031 0.906 c -0.356 -0.296 -0.694 -0.59 -1.031 -0.906 z m 23.09 5 c -0.539 0.182 -1.069 0.357 -1.625 0.5 c 0.551 -0.142 1.091 -0.319 1.625 -0.5 z m -3.594 0.906 c -0.617 0.102 -1.243 0.167 -1.875 0.219 c 0.633 -0.052 1.257 -0.116 1.875 -0.219 z m -1.875 0.219 c -0.632 0.052 -1.261 0.094 -1.906 0.094 c 0.644 0 1.276 -0.042 1.906 -0.094 z" fill="url(#linearGradient3092)" fill-opacity="1"/><path d="m 39.531 17.375 c 2.375 2.738 3.579 6.976 2.594 12.09 0.079 0.017 0.806 0.277 1.094 0.375 0.876 -5.493 -0.783 -9.928 -3.688 -12.469 z" opacity="0.1" fill="#000" fill-rule="nonzero" stroke="none" fill-opacity="0.902"/><path d="m 31.625 14.03 c -1.883 0.125 -3.859 0.801 -5.781 2.094 c -2.711 -1.293 -12.267 -2.438 -13.12 8.469 c -1.941 -0.363 -6.973 1.547 -7.281 6.313 l -3.03 1 c 3.224 8.807 11.67 15.09 21.594 15.09 c 10.332 0 19.07 -6.81 21.969 -16.188 c -1.776 -0.636 -3.567 -1.282 -3.844 -1.344 c 1.816 -9.43 -3.773 -15.887 -10.5 -15.438 z" fill="#f9f9f9" fill-rule="nonzero" stroke="none" fill-opacity="0.902"/><g><path d="m 40.03 7.531 c 3.712 4.084 5.969 9.514 5.969 15.469 0 12.703 -10.297 23 -23 23 c -5.954 0 -11.384 -2.256 -15.469 -5.969 4.178 4.291 10.01 6.969 16.469 6.969 c 12.703 0 23 -10.298 23 -23 0 -6.462 -2.677 -12.291 -6.969 -16.469 z" opacity="0.1"/></g></svg>
